raw/symbols/arb.svg

<svg width="42" height="42" viewBox="0 0 42 42" fill="none" xmlns="http://www.w3.org/2000/svg">
<rect width="42" height="42" rx="21" fill="#F5F5F5"/>
<path d="M33.6351 12.0716C34.4449 12.5827 34.9619 13.4608 35 14.4199V27.5421C34.9641 28.4032 34.5657 29.198 33.8884 29.7251L22.0894 36.5891C21.7527 36.7216 21.3969 36.7889 21.0319 36.7889C20.6339 36.7889 20.1922 36.7017 19.8852 36.5519C19.8463 36.533 19.7362 36.4722 19.5744 36.381C19.47 36.322 19.3427 36.2497 19.1999 36.1682L14.8806 33.6701L7 27.9926V14.414C7.04527 13.5255 7.48593 12.7168 8.20883 12.1963C8.34609 12.0977 8.49194 12.0108 8.64335 11.9379C8.64335 11.9379 19.5862 5.5628 19.681 5.51478C20.4833 5.10936 21.4841 5.10985 22.2851 5.51507L33.6351 12.0716Z" fill="#2D374B"/>
<path d="M21.0854 25.5823L25.4218 32.4188L29.4274 30.0869L23.7326 21.0703L21.0854 25.5823Z" fill="#28A0F0"/>
<path d="M33.0787 27.3424L33.0758 25.4741L26.8531 15.7383L24.5444 19.6733L30.5516 29.4325L32.7236 28.1682C32.9367 27.9945 33.0655 27.7394 33.0791 27.4641L33.0787 27.3424Z" fill="#28A0F0"/>
<path d="M7.0001 29.1125L10.0673 30.8878L20.2741 14.4452L18.5418 14.3992C17.0658 14.3783 15.4759 14.7637 14.7461 15.9603L8.94997 24.9846L7 27.9942V29.1125H7.0001Z" fill="#F3F3F3"/>
<path d="M26.1635 14.4531L21.5982 14.4698L11.269 31.5917L14.8793 33.6798L15.8611 32.0071L26.1635 14.4531Z" fill="#F3F3F3"/>
<path d="M35 14.4199C34.9619 13.4608 34.4449 12.5827 33.6351 12.0716L22.2851 5.51507C21.4841 5.10985 20.4833 5.10936 19.681 5.51478C19.5862 5.5628 8.64335 11.9379 8.64335 11.9379C8.49194 12.0108 8.34609 12.0977 8.20883 12.1963C7.48593 12.7168 7.04527 13.5255 7 14.414V27.9926L8.94997 24.983L8.93289 14.5058C8.93524 14.4675 8.94002 14.4299 8.94675 14.3926C8.99075 14.1461 9.12781 13.9262 9.33415 13.7776C9.38566 13.7406 20.5153 7.26922 20.5508 7.25139C20.8124 7.11938 21.1448 7.11801 21.4067 7.24737L32.6099 13.7207C32.8749 13.8902 33.0411 14.1777 33.0558 14.492V27.4706C33.0422 27.7459 32.9339 28.0009 32.7209 28.1748L30.5489 29.439L29.4282 30.0914L25.4225 32.4232L21.3603 34.7881C21.1415 34.8675 20.8857 34.8631 20.6687 34.7744L15.8625 31.9975L14.8806 33.6701L19.1999 36.1682C19.3427 36.2497 19.47 36.322 19.5744 36.381C19.7362 36.4722 19.8463 36.533 19.8852 36.5519C20.1922 36.7017 20.6339 36.7889 21.0319 36.7889C21.3969 36.7889 21.7527 36.7216 22.0894 36.5891L33.8884 29.7251C34.5657 29.198 34.9641 28.4032 35 27.5421V14.4199Z" fill="#96BEDC"/>
</svg>

<svg xmlns="http://www.w3.org/2000/svg" width="42" height="42" fill="none"><rect width="42" height="42" fill="#F5F5F5" rx="21"/><path fill="#2D374B" d="M33.635 12.072A2.923 2.923 0 0 1 35 14.42v13.122a2.902 2.902 0 0 1-1.112 2.183L22.09 36.59c-.336.133-.692.2-1.057.2-.398 0-.84-.087-1.147-.237a9.217 9.217 0 0 1-.31-.171l-.375-.213-4.32-2.498L7 27.993V14.414a2.902 2.902 0 0 1 1.643-2.476s10.943-6.375 11.038-6.423a2.94 2.94 0 0 1 2.604 0l11.35 6.557Z"/><path fill="#28A0F0" d="m21.085 25.582 4.337 6.837 4.005-2.332-5.694-9.017-2.648 4.512ZM33.079 27.342l-.003-1.868-6.223-9.736-2.309 3.935 6.008 9.76 2.172-1.265a.968.968 0 0 0 .355-.704v-.122Z"/><path fill="#F3F3F3" d="m7 29.113 3.067 1.775 10.207-16.443-1.732-.046c-1.476-.02-3.066.365-3.796 1.561L8.95 24.985 7 27.995v1.117ZM26.163 14.453l-4.565.017L11.27 31.592l3.61 2.088.982-1.673 10.302-17.554Z"/><path fill="#96BEDC" d="M35 14.42a2.923 2.923 0 0 0-1.365-2.348l-11.35-6.557a2.94 2.94 0 0 0-2.604 0c-.095.048-11.038 6.423-11.038 6.423A2.91 2.91 0 0 0 7 14.414v13.579l1.95-3.01-.017-10.477a.97.97 0 0 1 .401-.728c.052-.037 11.181-6.509 11.217-6.527a.983.983 0 0 1 .856-.004l11.203 6.474a.97.97 0 0 1 .446.771v12.979a.948.948 0 0 1-.335.704l-2.172 1.264-1.12.652-4.006 2.332-4.063 2.365a.98.98 0 0 1-.691-.014l-4.806-2.777-.982 1.673 4.319 2.498.374.213c.162.091.272.152.311.17.307.15.749.238 1.147.238.365 0 .72-.067 1.057-.2l11.8-6.864A2.902 2.902 0 0 0 35 27.542V14.42Z"/></svg>
